assets/images/svg/coffee_24.svg

<svg width="24" height="24" viewBox="0 0 24 24" fill="none" xmlns="http://www.w3.org/2000/svg">
<path d="M17.4482 3.51553H5.73032V2.65082C5.73032 2.37422 5.95455 2.15 6.2311 2.15H16.9475C17.224 2.15 17.4482 2.37421 17.4482 2.65082V3.51553Z" fill="#D7514A" stroke="black" stroke-width="0.3"/>
<path d="M18.693 3.50585L18.693 3.50586L19.0224 4.7058C19.0224 4.70581 19.0224 4.70582 19.0224 4.70583C19.0512 4.811 18.9721 4.9147 18.8631 4.9147H4.31538C4.20628 4.9147 4.12721 4.81091 4.15608 4.70586L4.15609 4.70583L4.48549 3.50589C4.48549 3.50588 4.48549 3.50587 4.48549 3.50586C4.50523 3.4341 4.57047 3.38438 4.64479 3.38438H18.5337C18.6081 3.38438 18.6733 3.43414 18.693 3.50585Z" fill="#E56353" stroke="black" stroke-width="0.3"/>
<path d="M7.24516 22.0906L7.24516 22.0906L6.7102 18.0223H16.4682L15.9332 22.0906C15.8798 22.4963 15.534 22.7997 15.1248 22.7997H8.05359C7.64434 22.7997 7.29848 22.4963 7.24516 22.0906Z" fill="#FCD497" stroke="black" stroke-width="0.4"/>
<path d="M5.66089 10.0419L5.03271 5.26445H18.1457L17.5175 10.0419H5.66089Z" fill="#FCD497" stroke="black" stroke-width="0.4"/>
<path d="M6.67574 18.3L5.62638 10.2H17.5427L16.5005 18.3H6.67574Z" fill="#CE8E5E" stroke="black" stroke-width="0.4"/>
<path d="M12.2682 13.5951L12.2682 13.5951C12.65 13.0711 13.2854 12.7435 13.9332 12.7233C14.2196 13.5528 13.9282 14.673 13.0787 15.5225C12.242 16.3592 11.1446 16.6539 10.3194 16.3905C10.4599 16.2777 10.564 16.1671 10.6208 16.1068L10.6208 16.1067C11.0627 15.6368 11.4408 15.1098 11.7444 14.5406L11.7444 14.5406C11.795 14.4457 11.8435 14.3498 11.891 14.2556L11.8914 14.255L11.8914 14.2549C12.0159 14.0084 12.127 13.7888 12.2682 13.5951Z" fill="#AD6636" stroke="black" stroke-width="0.3"/>
<path d="M9.981 15.5052L9.981 15.5052C9.79352 15.7046 9.64363 15.8101 9.52594 15.8529C8.86004 15.027 9.05434 13.5891 10.0998 12.5437C11.1186 11.5249 12.5074 11.3145 13.3431 11.9188C12.6376 12.0786 11.9874 12.4893 11.5584 13.0781C11.3742 13.331 11.2369 13.6029 11.1101 13.8541L11.1075 13.8592L11.1075 13.8593L11.1023 13.8695C11.0581 13.957 11.0147 14.0429 10.9696 14.1274C10.7024 14.6282 10.3699 15.0918 9.981 15.5052ZM9.47243 16.0212C9.6511 15.994 9.85426 15.8589 10.0903 15.608L9.47243 16.0212Z" fill="#AD6636" stroke="black" stroke-width="0.3"/>
<path d="M10.5115 16.0042C10.9443 15.544 11.3146 15.0278 11.612 14.4703C11.6618 14.3769 11.7096 14.2823 11.7575 14.1876C11.8808 13.9432 11.9974 13.7123 12.1469 13.5071C12.5777 12.9156 13.3065 12.5595 14.0366 12.5729C13.9523 12.3669 13.8324 12.1781 13.6766 12.0137C12.892 12.1056 12.1464 12.5259 11.6796 13.1666C11.5024 13.4099 11.3697 13.6728 11.2413 13.9271C11.1955 14.0178 11.1497 14.1086 11.1019 14.1981C10.8285 14.7107 10.4882 15.1851 10.0903 15.6081C9.8542 15.8591 9.65109 15.9942 9.47241 16.0213C9.49271 16.0438 9.51309 16.0662 9.5347 16.0878C9.67476 16.2279 9.83399 16.3402 10.0071 16.426C10.2481 16.2834 10.4271 16.0939 10.5115 16.0042Z" fill="#995B30"/>
</svg>

<svg xmlns="http://www.w3.org/2000/svg" width="24" height="24" fill="none">
    <path fill="#D7514A" stroke="#000" stroke-width=".3"
        d="M17.45 3.52H5.73v-.87c0-.28.22-.5.5-.5h10.72c.27 0 .5.22.5.5v.87Z" />
    <path fill="#E56353" stroke="#000" stroke-width=".3"
        d="m18.7 3.5.32 1.2c.03.11-.05.21-.16.21H4.32c-.11 0-.2-.1-.16-.2l.33-1.2a.17.17 0 0 1 .15-.13h13.9c.07 0 .13.05.15.13Z" />
    <path fill="#FCD497" stroke="#000" stroke-width=".4"
        d="m7.25 22.1-.54-4.08h9.76l-.54 4.07c-.05.4-.4.71-.8.71H8.04c-.4 0-.75-.3-.8-.7ZM5.66 10.04l-.63-4.78h13.12l-.63 4.78H5.66Z" />
    <path fill="#CE8E5E" stroke="#000" stroke-width=".4"
        d="m6.68 18.3-1.05-8.1h11.91l-1.04 8.1H6.68Z" />
    <path fill="#AD6636" stroke="#000" stroke-width=".3"
        d="M12.27 13.6a2.17 2.17 0 0 1 1.66-.88c.29.83 0 1.95-.85 2.8-.84.84-1.94 1.13-2.76.87.14-.11.24-.22.3-.28.44-.47.82-1 1.12-1.57l.15-.28c.13-.25.24-.47.38-.66ZM9.98 15.5c-.19.2-.34.31-.45.35-.67-.82-.48-2.26.57-3.3 1.02-1.03 2.4-1.24 3.24-.63-.7.16-1.35.57-1.78 1.16-.19.25-.32.52-.45.77v.02l-.14.26c-.27.5-.6.96-.99 1.38Zm-.5.52c.17-.03.37-.16.61-.41l-.62.41Z" />
    <path fill="#995B30"
        d="M10.51 16c.43-.46.8-.97 1.1-1.53l.15-.28c.12-.25.24-.48.39-.68.43-.6 1.16-.95 1.89-.94-.09-.2-.2-.4-.36-.56-.79.1-1.53.52-2 1.16-.18.24-.31.5-.44.76l-.14.27c-.27.51-.61.99-1.01 1.4-.24.26-.44.4-.62.42a1.76 1.76 0 0 0 .54.4c.24-.14.42-.33.5-.42Z" />
</svg>
